app/assets/images/icons/active/facebook.svg

<svg width="32" height="232" viewBox="0 0 32 232" xmlns="http://www.w3.org/2000/svg"><title>facebook</title><g fill="none"><path d="M12.66 8.359c.045-.452.229-.929.563-1.427.331-.497.869-.943 1.612-1.337.745-.397 1.818-.595 3.218-.595h3.947v3.965h-2.889c-.287 0-.552.099-.792.295-.239.195-.362.38-.362.553v2.468h4.043c-.043.483-.09.952-.141 1.404l-.162 1.197c-.064.406-.129.781-.192 1.127h-3.578v10.991h-5.328v-10.991h-2.598v-3.729h2.598v-3.035c0-.136.019-.432.062-.886zm0 0" fill="#3A434E"/><path d="M13.16 48.359c.045-.452.229-.929.563-1.427.331-.497.869-.943 1.612-1.337.745-.397 1.818-.595 3.218-.595h3.947v3.965h-2.889c-.287 0-.552.099-.792.295-.239.195-.362.38-.362.553v2.468h4.043c-.043.483-.09.952-.141 1.404l-.162 1.197c-.064.406-.129.781-.192 1.127h-3.578v10.991h-5.328v-10.991h-2.598v-3.729h2.598v-3.035c0-.136.019-.432.062-.886zm0 0" fill="#67737B"/><path d="M13.66 88.359c.045-.452.229-.929.563-1.427.331-.497.869-.943 1.612-1.337.745-.397 1.818-.595 3.218-.595h3.947v3.965h-2.889c-.287 0-.552.099-.792.295-.239.195-.362.38-.362.553v2.468h4.043c-.043.483-.09.952-.141 1.404l-.162 1.197c-.064.406-.129.781-.192 1.127h-3.578v10.991h-5.328v-10.991h-2.598v-3.729h2.598v-3.035c0-.136.019-.432.062-.886zm0 0" fill="#fff"/><path d="M13.66 128.359c.045-.452.229-.929.563-1.427.331-.497.869-.943 1.612-1.337.745-.397 1.818-.595 3.218-.595h3.947v3.965h-2.889c-.287 0-.552.099-.792.295-.239.195-.362.38-.362.553v2.468h4.043c-.043.483-.09.952-.141 1.404l-.162 1.197c-.064.406-.129.781-.192 1.127h-3.578v10.991h-5.328v-10.991h-2.598v-3.729h2.598v-3.035c0-.136.019-.432.062-.886zm0 0" fill="#206FAC"/></g></svg>

<svg width="32" height="232" viewBox="0 0 32 232" xmlns="http://www.w3.org/2000/svg"><title>facebook</title><g fill="none"><path d="M12.66 8.36c.045-.453.23-.93.563-1.428.33-.497.87-.943 1.612-1.337C15.58 5.198 16.653 5 18.053 5H22v3.965h-2.89c-.286 0-.55.1-.79.295-.24.195-.363.38-.363.553v2.468H22c-.043.485-.09.954-.14 1.406l-.163 1.197c-.064.406-.13.78-.192 1.127h-3.578V27H12.6V16.01H10v-3.73h2.6V9.245c0-.136.018-.432.06-.886zm0 0" fill="#3A434E"/><path d="M13.16 48.36c.045-.453.23-.93.563-1.428.33-.497.87-.943 1.612-1.337.745-.397 1.818-.595 3.218-.595H22.5v3.965h-2.89c-.286 0-.55.1-.79.295-.24.195-.363.38-.363.553v2.468H22.5c-.043.485-.09.954-.14 1.406l-.163 1.197c-.064.406-.13.78-.192 1.127h-3.578V67H13.1V56.01h-2.6v-3.73h2.6v-3.035c0-.136.018-.432.06-.886zm0 0" fill="#67737B"/><path d="M13.66 88.36c.045-.453.23-.93.563-1.428.33-.497.87-.943 1.612-1.337.745-.397 1.818-.595 3.218-.595H23v3.965h-2.89c-.286 0-.55.1-.79.295-.24.195-.363.38-.363.553v2.468H23c-.043.485-.09.954-.14 1.406l-.163 1.197c-.064.406-.13.78-.192 1.127h-3.578V107H13.6V96.01H11v-3.73h2.6v-3.035c0-.136.018-.432.06-.886zm0 0" fill="#fff"/><path d="M13.66 128.36c.045-.453.23-.93.563-1.428.33-.497.87-.943 1.612-1.337.745-.397 1.818-.595 3.218-.595H23v3.965h-2.89c-.286 0-.55.1-.79.295-.24.195-.363.38-.363.553v2.468H23c-.043.485-.09.954-.14 1.406l-.163 1.197c-.064.406-.13.78-.192 1.127h-3.578V147H13.6v-10.99H11v-3.73h2.6v-3.035c0-.136.018-.432.06-.886zm0 0" fill="#206FAC"/></g></svg>
